components/ui-node-icon/src/standardize/standardize.medium.svg

<svg width="24" height="24" viewBox="0 0 24 24" fill="none" xmlns="http://www.w3.org/2000/svg">
  <path fill-rule="evenodd" clip-rule="evenodd" d="M7 5H6C4.34315 5 3 6.34314 3 8V18C3 19.6568 4.34315 21 6 21H16C17.6569 21 19 19.6568 19 18V17H10C8.34315 17 7 15.6568 7 14V5Z" fill="var(--tbl--colors--icons--clean--secondary)"/>
  <path fill-rule="evenodd" clip-rule="evenodd" d="M10 1C8.34315 1 7 2.34314 7 4V14C7 15.6568 8.34315 17 10 17H20C21.6569 17 23 15.6568 23 14V4C23 2.34315 21.6569 1 20 1H10ZM11 6C11 5.44772 11.4477 5 12 5H18C18.5523 5 19 5.44772 19 6C19 6.55228 18.5523 7 18 7H16V12C16 12.5523 15.5523 13 15 13C14.4477 13 14 12.5523 14 12V7H12C11.4477 7 11 6.55228 11 6Z" fill="var(--tbl--colors--icons--clean--primary)"/>
</svg>

<svg xmlns="http://www.w3.org/2000/svg" width="24" height="24" fill="none" viewBox="0 0 24 24">
  <path fill="var(--tbl--colors--icons--clean--secondary)" fill-rule="evenodd" d="M7 5H6a3 3 0 0 0-3 3v10a3 3 0 0 0 3 3h10a3 3 0 0 0 3-3v-1h-9a3 3 0 0 1-3-3V5Z" clip-rule="evenodd"/>
  <path fill="var(--tbl--colors--icons--clean--primary)" fill-rule="evenodd" d="M10 1a3 3 0 0 0-3 3v10a3 3 0 0 0 3 3h10a3 3 0 0 0 3-3V4a3 3 0 0 0-3-3H10Zm1 5a1 1 0 0 1 1-1h6a1 1 0 1 1 0 2h-2v5a1 1 0 1 1-2 0V7h-2a1 1 0 0 1-1-1Z" clip-rule="evenodd"/>
</svg>
